X:12
T:No.132 Fairy Jig
M:9/8
L:1/8
C:slip jig
K:D
A2G Add Add|ABG Add fef|
A2G ADD ADD|=cAG A2G FED|
ABG Add Add|A2G Add fef|
A2G Add Add|=cAG A2G FED||
abf add Add|a2f Add bag|
a2f add Add|=cAG A2G FED|
abf add Add|a2f Add bag|
a2a bag fge|fed =cAG FED||
